resources/svg/screen-o.svg

<svg xmlns="http://www.w3.org/2000/svg" viewBox="0 0 15 15" fill="none"><path d="M4 14.5H11M0.5 2.5L0.5 10.5C0.5 11.0523 0.947716 11.5 1.5 11.5L13.5 11.5C14.0523 11.5 14.5 11.0523 14.5 10.5V2.5C14.5 1.94772 14.0523 1.5 13.5 1.5L1.5 1.5C0.947716 1.5 0.5 1.94772 0.5 2.5Z" stroke="black"/></svg>

<svg xmlns="http://www.w3.org/2000/svg" viewBox="0 0 15 15" fill="none"><path d="M4 14.5h7M.5 2.5v8a1 1 0 001 1h12a1 1 0 001-1v-8a1 1 0 00-1-1h-12a1 1 0 00-1 1z" stroke="currentColor"/></svg>
